X: 502
T: A.B.
R: hornpipe
M: 4/4
K: Dmajor
|a/g/f/e/|:d>A D>A d2 (3dc=c|(3BGD B>d e3 g|f>e d>e (3fdA F>A|(3EAc e>f e2 (3gfe|
d>A D>A d2 (3dc=c|(3BGD B>d e3 g|(3fdA (3FAd (3EAc (3efg|1 f2d2d2 a/g/f/e/:|2 f2d2d2 d>B|
|:A>F (3DFA d3 B|(3DGB (3dBG E2F>G|A>F d>A f>d A>F|(3BGB (3dBd e2 F>G|(3AFA (3dAd f>d A>B|
(3DGB (3dBG E2 f>g|f>d (3FAd E>c (3efg|1 f2 d2 d2 d>B:|2 f2d2d4||

